packages/elvis-assets-icons/icons/svg/src/menu.svg

<svg width="24" height="24" viewBox="0 0 24 24" fill="none" xmlns="http://www.w3.org/2000/svg">
<path fill-rule="evenodd" clip-rule="evenodd" d="M0 19.0031C0 18.5888 0.335786 18.2531 0.75 18.2531H23.25C23.6642 18.2531 24 18.5888 24 19.0031C24 19.4173 23.6642 19.7531 23.25 19.7531H0.75C0.335786 19.7531 0 19.4173 0 19.0031Z" fill="black"/>
<path fill-rule="evenodd" clip-rule="evenodd" d="M0 12.0031C0 11.5888 0.335786 11.2531 0.75 11.2531H23.25C23.6642 11.2531 24 11.5888 24 12.0031C24 12.4173 23.6642 12.7531 23.25 12.7531H0.75C0.335786 12.7531 0 12.4173 0 12.0031Z" fill="black"/>
<path fill-rule="evenodd" clip-rule="evenodd" d="M0 5.00305C0 4.58884 0.335786 4.25305 0.75 4.25305H23.25C23.6642 4.25305 24 4.58884 24 5.00305C24 5.41727 23.6642 5.75305 23.25 5.75305H0.75C0.335786 5.75305 0 5.41727 0 5.00305Z" fill="black"/>
</svg>

<svg width="24" height="24" fill="none" xmlns="http://www.w3.org/2000/svg"><path fill-rule="evenodd" clip-rule="evenodd" d="M0 19.003a.75.75 0 01.75-.75h22.5a.75.75 0 110 1.5H.75a.75.75 0 01-.75-.75zM0 12.003a.75.75 0 01.75-.75h22.5a.75.75 0 110 1.5H.75a.75.75 0 01-.75-.75zM0 5.003a.75.75 0 01.75-.75h22.5a.75.75 0 010 1.5H.75a.75.75 0 01-.75-.75z" fill="#000"/></svg>
